svgs/sharp-light/block.svg

<svg xmlns="http://www.w3.org/2000/svg" viewBox="0 0 448 512"><!--! Font Awesome Pro 6.6.0 by @fontawesome - https://fontawesome.com License - https://fontawesome.com/license (Commercial License) Copyright 2024 Fonticons, Inc. --><path d="M416 64l0 384L32 448 32 64l384 0zM32 32L0 32 0 64 0 448l0 32 32 0 384 0 32 0 0-32 0-384 0-32-32 0L32 32zm80 88a24 24 0 1 0 -48 0 24 24 0 1 0 48 0zm248 24a24 24 0 1 0 0-48 24 24 0 1 0 0 48zM112 392a24 24 0 1 0 -48 0 24 24 0 1 0 48 0zm248 24a24 24 0 1 0 0-48 24 24 0 1 0 0 48z"/></svg>

<svg xmlns="http://www.w3.org/2000/svg" viewBox="0 0 448 512"><!--! Font Awesome Pro 6.4.2 by @fontawesome - https://fontawesome.com License - https://fontawesome.com/license (Commercial License) Copyright 2023 Fonticons, Inc. --><path d="M416 64V448H32V64H416zM32 32H0V64 448v32H32 416h32V448 64 32H416 32zm80 88a24 24 0 1 0 -48 0 24 24 0 1 0 48 0zm248 24a24 24 0 1 0 0-48 24 24 0 1 0 0 48zM112 392a24 24 0 1 0 -48 0 24 24 0 1 0 48 0zm248 24a24 24 0 1 0 0-48 24 24 0 1 0 0 48z"/></svg>
